dist/img/svg/instagram-17.svg

<svg width="17" height="17" viewBox="0 0 17 17" fill="none" xmlns="http://www.w3.org/2000/svg">
<path d="M11.6875 0H5.3125C2.37894 0 0 2.29358 0 5.12188V11.2681C0 14.0964 2.37894 16.39 5.3125 16.39H11.6875C14.6211 16.39 17 14.0964 17 11.2681V5.12188C17 2.29358 14.6211 0 11.6875 0ZM15.4062 11.2681C15.4062 13.2452 13.7381 14.8534 11.6875 14.8534H5.3125C3.26187 14.8534 1.59375 13.2452 1.59375 11.2681V5.12188C1.59375 3.14483 3.26187 1.53656 5.3125 1.53656H11.6875C13.7381 1.53656 15.4062 3.14483 15.4062 5.12188V11.2681Z" fill="white"/>
<path d="M8.5 4.0975C6.15294 4.0975 4.25 5.93216 4.25 8.195C4.25 10.4578 6.15294 12.2925 8.5 12.2925C10.8471 12.2925 12.75 10.4578 12.75 8.195C12.75 5.93216 10.8471 4.0975 8.5 4.0975ZM8.5 10.7559C7.03587 10.7559 5.84375 9.60659 5.84375 8.195C5.84375 6.78239 7.03587 5.63406 8.5 5.63406C9.96412 5.63406 11.1562 6.78239 11.1562 8.195C11.1562 9.60659 9.96412 10.7559 8.5 10.7559Z" fill="white"/>
<path d="M13.0688 4.33618C13.3815 4.33618 13.6351 4.09173 13.6351 3.79019C13.6351 3.48864 13.3815 3.24419 13.0688 3.24419C12.756 3.24419 12.5025 3.48864 12.5025 3.79019C12.5025 4.09173 12.756 4.33618 13.0688 4.33618Z" fill="white"/>
</svg>

<svg width="17" height="17" viewBox="0 0 17 17" fill="none" xmlns="http://www.w3.org/2000/svg"><path d="M11.688 0H5.311C2.38 0 0 2.294 0 5.122v6.146c0 2.828 2.379 5.122 5.313 5.122h6.375c2.933 0 5.312-2.294 5.312-5.122V5.122C17 2.294 14.621 0 11.687 0zm3.718 11.268c0 1.977-1.668 3.585-3.719 3.585H5.314c-2.051 0-3.72-1.608-3.72-3.585V5.122c0-1.977 1.669-3.585 3.72-3.585h6.375c2.05 0 3.718 1.608 3.718 3.585v6.146z" fill="#fff"/><path d="M8.5 4.098c-2.347 0-4.25 1.834-4.25 4.097 0 2.263 1.903 4.098 4.25 4.098s4.25-1.835 4.25-4.098-1.903-4.098-4.25-4.098zm0 6.658c-1.464 0-2.656-1.15-2.656-2.561 0-1.413 1.192-2.56 2.656-2.56 1.464 0 2.656 1.147 2.656 2.56 0 1.412-1.192 2.56-2.656 2.56zm4.569-6.42a.556.556 0 00.566-.546.556.556 0 00-.566-.546.556.556 0 00-.567.546c0 .302.254.546.567.546z" fill="#fff"/></svg>
